X:216
T:Livets f\"astem\"o
R:sl\"angpolska
H:efter Karl Fahlstr\"om "Glysen", Karlskoga-Grythyttans bergslag.
H:Han hade l{\aa}ten efter Fritter Petters Lundstedt, M{\aa}rdshyttan, Lindesberg.
A:V\"astmanland
D:Anders Norudde: Kan sj\"alv! (spelas i Dm p{\aa} skivan)
Z:id:hn-sp-216
M:3/4
L:1/16
K:Gm
G^FGA BABc d^cd^f | a2a2 gag=f fd2d | B2Bd A2AB G2AG |
^FD^FA G2AG ^F2D2 | G^FGA BABc d^cd^f | a2a2 gag=f fd2d |
B2Bd A2AB G2AG | ^FD^FA G4 G4 :| B2BA B2Bd B2Bd | d2cB A2cA A2cA |
B2BA B2Bd B2Bd | d2cB A2cA A2cA | B2d2 A2c2 G2AG | ^FD^FA G4 G4 ||
B2BA B2Bd B2Bd | d2cB A2cA A2cA | B2BA B2Bd B2Bd | d2cB A2cA A=FA2 |
c2cA c2cA B2d2 | d2cB A2cA A=FA2 | c2cA c2cA B2d2 |
d2cB A2cA A=FA2 | BABc d2d2 B2cB | AG^FA G4 G4 ||

